X: 1
T: Private Ass &amp; Cart
M: 4/4
L: 1/8
R: fling
K: Emaj
G2G>B A>FF>A|G<EE>G B>cB>A|G2G>B A>FF>A|1 B2A>F G<EE>F:|2 B2A>F G<EE>e||
d>ef>d e2d>c|B>F (3FFF B<FB>c|d>ef>d e2d>c|B>AF>A G<EE>e|
d>ef>d e2d>c|B<FF>F B>FB>c|d>cd>e f2f>e|d>BA>F G<EE>F||
